X:70
T: Graf und Nonne (Die Nonne)
N: Q1155G
O: Mitteleuropa, Deutschland (BRD) , Nordrhein - Westfalen, Meurs
N: Melodievergleich zu Q0155I., anderes Lied. Vierte Zeile = Refrain
N: auf sinnfreie Silben.
R: Liebes - Lied
M: 2/4
L: 1/16
K: G
D2 | G2D2B,2D2 | B3AG2
B2 | A3GF2GB | A4z2
FG | A2A2A2c2 | B3AG4
A4A2c2 | BABAG2
G2 | E2G2FFA2 | G4z2

